X:20
T:Burke's
Z: id:dc-jig-16
M:6/8
L:1/8
K:D Major
A|dAF AGF|dAF AGF|A,CE GFG|A,CE GFE|!
DFA DGB|Ace d2e|fed cBA|GFE D2:|!
g|fdf a^ga|fdc d2f|e=ce gfg|e=ce gfe|!
f3 g3|a3 bag|fed cBA|GFE D2:|!